!!!!SEGMENT: pl-sa--172-a-v-2--012_szczurowski-jacek--msza-swiateczna-benedictus.krn
!!!cenid: 17xx:272
!!!COM: Szczurowski, Jacek
!!!COM-rismid: pe30017605
!!!CDT: 1716/08/15-~1733
!!!CNT: Polish
!!!OPR: Msza świąteczna
!!!OTL: Benedictus
!!!OMV: 012
!!!PDT:
!!!AGN: Sacred; Mass
!!!SMS-siglum: PL-SA
!!!SMS-shelfmark: 172/A V 2
!!!SMS-shelfwork: 001-012 M
!!!NIFC-rismid:
!!!URL-scan: http://bc.bdsandomierz.pl/dlibra/publication/1506/edition/1474/content
!!!ONB-nifc: UWAGA: części Mszy: Kyrie, Christe, Et in terra, Laudamus, Qui tollis, Quoniam, Patrem, Et Incarnatus, Ressurexit, Sanctus, Osanna, Benedictus, Agnus Dei
**kern	**dynam	**fb	**kern	**dynam	**kern	**dynam	**kern	**kern	**text	**kern	**kern
*part7	*part7	*	*part4	*part4	*part3	*part3	*part2	*part1	*part1	*part6	*part5
*staff7	*	*	*staff4	*	*staff3	*	*staff2	*staff1	*staff1	*staff6	*staff5
*Iorgan	*	*	*Ivioln	*	*Ivioln	*	*Isoprn	*Isoprn	*	*Icor	*Icor
*I"Organo:	*	*	*I"Violino 2d:	*	*I"Violino Primo	*	*I"Soprano 2do:	*I"Soprano Primo	*	*I"Corno 2do Ex D:	*I"Corno Primo Ex D:
*I'Org.	*	*	*I'V-no 2	*	*I'V-no 1	*	*I'S. 2	*I'S. 1	*	*I'C. 2 in D	*I'C. 1 in D
*clefF4	*	*	*clefG2	*	*clefG2	*	*clefC1	*clefC1	*	*clefG2	*clefG2
*	*	*	*	*	*	*	*	*	*	*ITrd6c10	*ITrd6c10
*k[f#]	*	*	*k[f#]	*	*k[f#]	*	*k[f#]	*k[f#]	*	*k[f#]	*k[f#]
*G:	*	*	*G:	*	*G:	*	*G:	*G:	*	*G:	*G:
*M12/8	*	*	*M12/8	*	*M12/8	*	*M12/8	*M12/8	*	*M12/8	*M12/8
!LO:TX:a:t=andante	!	!	!LO:TX:a:t=andante	!	!LO:TX:a:t=andante	!	!LO:TX:a:t=Benedictus \nTacet	!LO:TX:a:t=Benedictus	!	!LO:TX:a:t=Benedictus \nTacet	!LO:TX:a:t=Benedictus \nTacet
*	*	*above	*	*	*	*	*	*	*	*	*
8r	.	.	8r	.	8dd\	.	8ryy	8r	.	8ryy	8ryy
=1	=1	=1	=1	=1	=1	=1	=1	=1	=1	=1	=1
4GG/	.	.	4b/	.	4gg\	.	1.ryy	00.r	.	1.ryy	1.ryy
8r	.	.	8b/	.	8dd\	.	.	.	.	.	.
4GG/	.	.	4g/	.	4b/	.	.	.	.	.	.
8r	.	.	8g/	.	8g/	.	.	.	.	.	.
!	!	!	!	!	!	!	!	!LO:TX:a:t=8	!	!	!
4G\	.	.	8.g/L	.	8.g/L	.	.	.	.	.	.
.	.	.	16d/K	.	16d/K	.	.	.	.	.	.
8r	.	.	8g/J	.	8b/J	.	.	.	.	.	.
8.d\L	.	.	4.g/	.	4.b/	.	.	.	.	.	.
16A\K	.	.	.	.	.	.	.	.	.	.	.
8F#\J	.	.	.	.	.	.	.	.	.	.	.
=2	=2	=2	=2	=2	=2	=2	=2	=2	=2	=2	=2
4D/	.	.	4f#/	.	4a/	.	1.ryy	.	.	1.ryy	1.ryy
8r	.	.	8dd\	.	8ff#\	.	.	.	.	.	.
4D/	.	.	4ff#\	.	4aa\	.	.	.	.	.	.
8r	.	.	8dd\	.	8ff#\	.	.	.	.	.	.
4F#\	.	.	4b\	.	4dd\	.	.	.	.	.	.
8r	.	.	8a/	.	8cc\	.	.	.	.	.	.
!LO:N:vis=4	!	!	!	!	!	!	!	!	!	!	!
4.D/	.	.	8.f#/L	.	8.a/L	.	.	.	.	.	.
.	.	.	16d/K	.	16d/K	.	.	.	.	.	.
.	.	.	8a/J	.	8cc/J	.	.	.	.	.	.
=3	=3	=3	=3	=3	=3	=3	=3	=3	=3	=3	=3
!LO:N:vis=8.	!	!	!	!	!	!	!	!	!	!	!
8G\L	.	.	4.a/	.	4.cc\	.	1.ryy	.	.	1.ryy	1.ryy
8D\	.	.	.	.	.	.	.	.	.	.	.
8BB\J	.	.	.	.	.	.	.	.	.	.	.
4GG/	.	.	8g/	.	4b\	.	.	.	.	.	.
.	.	.	4g/	.	.	.	.	.	.	.	.
8r	.	.	.	.	8dd\	.	.	.	.	.	.
4G\	.	4	4cc\	.	8.ee\L	.	.	.	.	.	.
.	.	.	.	.	16cc\K	.	.	.	.	.	.
!	!	!	!LO:LB:g=original	!	!	!	!	!	!	!	!
8r	.	.	8ee\	.	8gg\J	.	.	.	.	.	.
!	!	!	!	!	!LO:LB:g=original	!	!	!	!	!	!
4G\	.	4	4ff#\	.	8.ccc\L	.	.	.	.	.	.
.	.	.	.	.	16gg\K	.	.	.	.	.	.
8r	.	.	8cc\	.	8ee\J	.	.	.	.	.	.
=4	=4	=4	=4	=4	=4	=4	=4	=4	=4	=4	=4
4G\	.	3	4b\	.	8.dd\L	.	1.ryy	.	.	1.ryy	1.ryy
.	.	.	.	.	16b\K	.	.	.	.	.	.
8r	.	.	8dd\	.	8gg\J	.	.	.	.	.	.
4G\	.	3	4dd\	.	8.bb\L	.	.	.	.	.	.
.	.	.	.	.	16gg\K	.	.	.	.	.	.
8r	.	.	8b\	.	8dd\J	.	.	.	.	.	.
4D/	.	2	4a/	.	8.cc\L	.	.	.	.	.	.
.	.	.	.	.	16a\K	.	.	.	.	.	.
!LO:LB:g=original	!	!	!	!	!	!	!	!	!	!	!
8r	.	.	8a/	.	8ff#\J	.	.	.	.	.	.
!LO:N:vis=4	!	!	!	!	!	!	!	!	!	!	!
4.D/	.	2	4cc\	.	8.aa\L	.	.	.	.	.	.
.	.	.	.	.	16ff#\K	.	.	.	.	.	.
.	.	.	8b\	.	8dd\J	.	.	.	.	.	.
=5	=5	=5	=5	=5	=5	=5	=5	=5	=5	=5	=5
8.F#\L	.	.	4a/	.	4cc\	.	1.ryy	00.r	.	1.ryy	1.ryy
16D\K	.	.	.	.	.	.	.	.	.	.	.
8G\J	.	.	8g/	.	8b\	.	.	.	.	.	.
4D/	.	.	4cc\	.	8.aa\L	.	.	.	.	.	.
.	.	.	.	.	16ff#\K	.	.	.	.	.	.
8F#\	.	.	8a/	.	8cc\J	.	.	.	.	.	.
!	!	!	!	!	!LO:N:vis=4.	!	!	!	!	!	!
8.d\L	.	.	4.g/	.	4b/	.	.	.	.	.	.
16A\K	.	.	.	.	.	.	.	.	.	.	.
8F#\J	.	.	.	.	4a/	.	.	.	.	.	.
4D/	.	.	4f#/	.	.	.	.	.	.	.	.
.	.	.	.	.	4d/	.	.	.	.	.	.
8r	.	.	8d/	.	.	.	.	.	.	.	.
=6	=6	=6	=6	=6	=6	=6	=6	=6	=6	=6	=6
4D/	.	.	4f#/	.	8.d/L	.	1.ryy	.	.	1.ryy	1.ryy
.	.	.	.	.	16f#/K	.	.	.	.	.	.
8r	.	.	8a/	.	8a/J	.	.	.	.	.	.
4F#\	.	.	4a/	.	8cc/L	.	.	.	.	.	.
.	.	.	.	.	16cc	.	.	.	.	.	.
.	.	.	.	.	16a/K	.	.	.	.	.	.
!	!	!	!LO:TX:t=P:problem:z źródle między 8f# a 4g dodatkowa kreska taktowa	!	!	!	!	!	!	!	!
8r	.	.	8f#/	.	8f#/J	.	.	.	.	.	.
4G\	.	.	4g/	.	8b/L	.	.	.	.	.	.
.	.	.	.	.	16b	.	.	.	.	.	.
.	.	.	.	.	16g/K	.	.	.	.	.	.
8r	.	.	8b/	.	8dd/J	.	.	.	.	.	.
4GG/	.	.	4b/	.	4gg\	.	.	.	.	.	.
8r	.	.	8b/	.	8dd\	.	.	.	.	.	.
=7	=7	=7	=7	=7	=7	=7	=7	=7	=7	=7	=7
4D/	.	.	4f#/	.	8.d/L	.	1.ryy	.	.	1.ryy	1.ryy
.	.	.	.	.	16f#/K	.	.	.	.	.	.
8r	.	.	8a/	.	8a/J	.	.	.	.	.	.
4F#\	.	.	4a/	.	8.cc/L	.	.	.	.	.	.
.	.	.	.	.	16a/K	.	.	.	.	.	.
8r	.	.	8f#/	.	8f#/J	.	.	.	.	.	.
4G\	.	.	4g/	.	8.b/L	.	.	.	.	.	.
.	.	.	.	.	16g/K	.	.	.	.	.	.
8r	.	.	8b/	.	8dd/J	.	.	.	.	.	.
4GG/	.	.	4b/	.	4gg\	.	.	.	.	.	.
8r	.	.	8b/	.	8dd\	.	.	.	.	.	.
=8	=8	=8	=8	=8	=8	=8	=8	=8	=8	=8	=8
4GG/	.	.	4b/	.	8.gg\L	.	1.ryy	.	.	1.ryy	1.ryy
.	.	.	.	.	16dd\K	.	.	.	.	.	.
8r	.	.	8r	.	8b\J	.	.	.	.	.	.
!	!	!	!	!	!LO:LB:g=original	!	!	!	!	!	!
4C/	.	.	8e/	.	8.ee\L	.	.	.	.	.	.
.	.	.	4r	.	.	.	.	.	.	.	.
.	.	.	.	.	16cc\K	.	.	.	.	.	.
8r	.	.	.	.	8a\J	.	.	.	.	.	.
4D/	.	.	4f#/	.	8d/L	.	.	.	.	.	.
.	.	.	.	.	8a/	.	.	.	.	.	.
8r	.	.	8r	.	8f#/J	.	.	.	.	.	.
!	!	!	!LO:LB:g=original	!	!	!	!	!	!	!	!
8G\L	.	.	8g/L	.	4g/	.	.	.	.	.	.
8D\	.	.	8d/	.	.	.	.	.	.	.	.
8BB\J	.	.	8B/J	.	8r	.	.	.	.	.	.
=9	=9	=9	=9	=9	=9	=9	=9	=9	=9	=9	=9
!	!	!	!	!	!	!	!	!LO:TX:a:t=Andante.	!	!	!
8GG/L	.	.	8G/L	.	4r	.	1.ryy	4r	.	1.ryy	1.ryy
8BB/	.	.	8B/	.	.	.	.	.	.	.	.
8D/J	.	.	8d/J	.	8r	.	.	8r	.	.	.
4G\	p	.	4G/	.	4r	.	.	4r	.	.	.
8r	.	.	8r	.	8dd\	.	.	8dd\	Be-	.	.
!	!LO:DY:a	!	!	!LO:DY:a	!	!LO:DY:a	!	!	!	!	!
!	!LO:DY:a	!	!	!LO:DY:a	!	!LO:DY:a	!	!	!	!	!
!	!	!	!	!	!	!LO:DY:t=pia&colon;	!	!	!	!	!
4GG/	.	.	4b/	p ???	4gg\	p ???	.	4gg\	.	.	.
8r	.	.	8b/	.	8dd\	.	.	8dd\	.	.	.
4GG/	.	.	4g/	.	4b/	.	.	4b\	-ne-	.	.
8r	.	.	8g/	.	8g/	.	.	8g\	.	.	.
=10	=10	=10	=10	=10	=10	=10	=10	=10	=10	=10	=10
4G\	.	.	8.g/L	.	8.g/L	.	1.ryy	4g/	-di-	1.ryy	1.ryy
.	.	.	16d/K	.	16d/K	.	.	.	.	.	.
8r	.	.	8g/J	.	8b/J	.	.	8b\	.	.	.
8.d\L	.	.	4.g/	.	4.b/	.	.	4.b\	-ctus	.	.
16A\K	.	.	.	.	.	.	.	.	.	.	.
8F#\J	.	.	.	.	.	.	.	.	.	.	.
4D/	.	.	4f#/	.	4a/	.	.	4a\	.	.	.
8r	.	.	8dd\	.	8ff#\	.	.	8ff#\	qui	.	.
!	!	!	!	!	!	!	!	!LO:LB:g=original	!	!	!
4D/	.	.	4ff#\	.	4aa\	.	.	4aa\	ve-	.	.
8r	.	.	8dd\	.	8ff#\	.	.	8ff#\	.	.	.
!LO:LB:g=original	!	!	!	!	!	!	!	!	!	!	!
=11	=11	=11	=11	=11	=11	=11	=11	=11	=11	=11	=11
4D/	.	.	4b/	.	4dd\	.	1.ryy	4dd\	.	1.ryy	1.ryy
8r	.	.	8a/	.	8cc\	.	.	8cc\	.	.	.
4F#\	.	.	8.f#/L	.	8.a/L	.	.	4a\	.	.	.
.	.	.	16d/K	.	16d/K	.	.	.	.	.	.
8r	.	.	8a/J	.	8cc/J	.	.	8cc\	.	.	.
8.G\L	.	.	4.a/	.	4.cc\	.	.	4.cc\	-nit	.	.
16D\K	.	.	.	.	.	.	.	.	.	.	.
8BB\J	.	.	.	.	.	.	.	.	.	.	.
4GG/	.	.	4g/	.	4b\	.	.	4b\	.	.	.
8r	.	.	8b/	.	8dd\	.	.	8dd\	in	.	.
=12	=12	=12	=12	=12	=12	=12	=12	=12	=12	=12	=12
4G\	.	4	4cc\	.	4ee\	.	1.ryy	8.ee\L	no-	1.ryy	1.ryy
.	.	.	.	.	.	.	.	16gg\K	.	.	.
8r	.	.	8r	.	8r	.	.	8ee\J	.	.	.
4G\	.	:	4cc\	.	4ee\	.	.	8.ee\L	.	.	.
.	.	.	.	.	.	.	.	16gg\K	.	.	.
8r	.	.	8r	.	8r	.	.	8ee\J	.	.	.
4G\	.	3	4b\	.	4dd\	.	.	8.dd\L	.	.	.
.	.	.	.	.	.	.	.	16gg\K	.	.	.
8r	.	.	8r	.	8r	.	.	8dd\J	.	.	.
4G\	.	:	4b\	.	4dd\	.	.	8.dd\L	.	.	.
.	.	.	.	.	.	.	.	16gg\K	.	.	.
8r	.	.	8r	.	8r	.	.	8dd\J	.	.	.
=13	=13	=13	=13	=13	=13	=13	=13	=13	=13	=13	=13
4D/	.	2	4a/	.	8.cc\L	.	1.ryy	4.cc\	.	1.ryy	1.ryy
.	.	.	.	.	16a\K	.	.	.	.	.	.
8r	.	.	8a/	.	8ff#\J	.	.	.	.	.	.
4D/	.	.	4cc\	.	8.aa\L	.	.	8.aa\L	.	.	.
.	.	.	.	.	16ff#\K	.	.	16ff#\K	.	.	.
8r	.	.	8b\	.	8dd\J	.	.	8dd\J	.	.	.
!	!	!	!LO:LB:g=original	!	!LO:LB:g=original	!	!	!	!	!	!
4D/	.	.	4a/	.	4cc\	.	.	4cc\	.	.	.
8r	.	.	8g/	.	8b\	.	.	8b\	.	.	.
4D/	.	.	4cc\	.	8.aa\L	.	.	8.aa\L	.	.	.
.	.	.	.	.	16ff#\K	.	.	16ff#\K	.	.	.
8r	.	.	8a/	.	8cc\J	.	.	8cc\J	.	.	.
!	!	!	!	!	!	!	!	!LO:LB:g=original	!	!	!
=14	=14	=14	=14	=14	=14	=14	=14	=14	=14	=14	=14
8.d\L	.	.	4.g/	.	4.b/	.	1.ryy	4b\	.	1.ryy	1.ryy
16A\K	.	.	.	.	.	.	.	.	.	.	.
8F#\J	.	.	.	.	.	.	.	8b\	-mi-	.	.
4D/	.	.	4f#/	.	4a/	.	.	4a\	-ni	.	.
8r	.	.	8d/	.	8d/	.	.	8d/	in	.	.
4D/	.	.	4f#/	.	8.d/L	.	.	4.d/	no-	.	.
.	.	.	.	.	16f#/K	.	.	.	.	.	.
8r	.	.	8r	.	8a/J	.	.	.	.	.	.
4F#\	.	.	4a/	.	8.cc/L	.	.	4.cc\	.	.	.
.	.	.	.	.	16a/K	.	.	.	.	.	.
8r	.	.	8r	.	8f#/J	.	.	.	.	.	.
=15	=15	=15	=15	=15	=15	=15	=15	=15	=15	=15	=15
4G\	.	.	4g/	.	8.g/L	.	1.ryy	4b\	.	1.ryy	1.ryy
.	.	.	.	.	16b/K	.	.	.	.	.	.
8r	.	.	8b/	.	8dd/J	.	.	8dd\	-mi-	.	.
4GG/	.	.	4b/	.	4gg\	.	.	4gg\	-ne	.	.
8r	.	.	8b/	.	8dd\	.	.	8dd\	.	.	.
4D/	.	.	4f#/	.	8.d/L	.	.	4.d/	in	.	.
.	.	.	.	.	16f#/K	.	.	.	.	.	.
8r	.	.	8r	.	8a/J	.	.	.	.	.	.
4F#\	.	.	4a/	.	8.cc/L	.	.	4.cc\	No-	.	.
.	.	.	.	.	16a/K	.	.	.	.	.	.
8r	.	.	8r	.	8f#/J	.	.	.	.	.	.
=16	=16	=16	=16	=16	=16	=16	=16	=16	=16	=16	=16
4G\	.	.	4g/	.	8.g/L	.	1.ryy	4b\	.	1.ryy	1.ryy
.	.	.	.	.	16b/K	.	.	.	.	.	.
8r	.	.	8b/	.	8dd/J	.	.	8dd\	-mi-	.	.
4GG/	.	.	4b/	.	4gg\	.	.	4gg\	-ne	.	.
8r	.	.	8b/	.	8dd\	.	.	8dd\	.	.	.
4GG/	.	.	4b/	.	8.gg\L	.	.	8.gg\L	do-	.	.
.	.	.	.	.	16dd\K	.	.	16dd\K	.	.	.
8r	.	.	8r	.	8b\J	.	.	8b\J	.	.	.
4C/	.	.	4e/	.	8.ee\L	.	.	8.ee\L	.	.	.
.	.	.	.	.	16cc\K	.	.	16cc\K	.	.	.
8r	.	.	8r	.	8a\J	.	.	8a\J	.	.	.
=17	=17	=17	=17	=17	=17	=17	=17	=17	=17	=17	=17
8D/L	.	.	8g/L	.	8b/L	.	1.ryy	4.g/	.	1.ryy	1.ryy
8D/	.	.	8g/	.	8b/	.	.	.	.	.	.
8D/J	.	.	8g/J	.	8b/J	.	.	.	.	.	.
8DD/L	.	.	8f#/L	.	8a/L	.	.	4.a/	.	.	.
8DD/	.	.	8f#/	.	8a/	.	.	.	.	.	.
8DD/J	.	.	8f#/J	.	8a/J	.	.	.	.	.	.
8.G\L	.	.	8g/L	.	4g/	.	.	8g/	-mi-	.	.
.	.	.	8d/	.	.	.	.	4g/	-ni	.	.
16D\K	.	.	.	.	.	.	.	.	.	.	.
8BB\J	.	.	8B/J	.	8r	.	.	.	.	.	.
8GG/L	.	.	4G/	.	4r	.	.	8r	.	.	.
8BB/	.	.	.	.	.	.	.	4r	.	.	.
!	!	!	!	!LO:DY:a	!	!LO:DY:a	!	!	!	!	!
!	!	!	!	!LO:DY:a	!	!LO:DY:a	!	!	!	!	!
8GG/J	.	.	8b/	f ???	8dd\	f ???	.	.	.	.	.
!	!	!	!	!	!LO:LB:g=original	!	!	!LO:LB:g=original	!	!	!
=18	=18	=18	=18	=18	=18	=18	=18	=18	=18	=18	=18
!	!LO:DY:a	!	!	!	!	!	!	!	!	!	!
!	!LO:DY:a	!	!	!	!	!	!	!	!	!	!
4G\	f ???	.	4cc\	.	8.ee\L	.	1.ryy	0.r	.	1.ryy	1.ryy
.	.	.	.	.	16cc\K	.	.	.	.	.	.
8r	.	.	8ee\	.	8gg\J	.	.	.	.	.	.
4G\	.	4	4ee\	.	8.ccc\L	.	.	.	.	.	.
.	.	.	.	.	16gg\K	.	.	.	.	.	.
!	!	!	!	!	!	!	!	!LO:TX:a:t=2	!	!	!
8r	.	.	8cc\	.	8ee\J	.	.	.	.	.	.
4G\	.	3	4b\	.	8.dd\L	.	.	.	.	.	.
.	.	.	.	.	16b\K	.	.	.	.	.	.
8r	.	.	8dd\	.	8gg\J	.	.	.	.	.	.
!	!	!	!LO:LB:g=original	!	!	!	!	!	!	!	!
4G\	.	:	4dd\	.	8.bb\L	.	.	.	.	.	.
.	.	.	.	.	16gg\K	.	.	.	.	.	.
8r	.	.	8cc\	.	8dd\J	.	.	.	.	.	.
=19	=19	=19	=19	=19	=19	=19	=19	=19	=19	=19	=19
4D/	.	2	4a/	.	8.cc\L	.	1.ryy	.	.	1.ryy	1.ryy
.	.	.	.	.	16a\K	.	.	.	.	.	.
8r	.	.	8a/	.	8ff#\J	.	.	.	.	.	.
4D/	.	.	4cc/	.	8.aa\L	.	.	.	.	.	.
.	.	.	.	.	16ff#\K	.	.	.	.	.	.
8r	.	.	8b/	.	8dd\J	.	.	.	.	.	.
4D/	.	.	4cc/	.	8.aa\L	.	.	.	.	.	.
.	.	.	.	.	16ff#\K	.	.	.	.	.	.
8F#\	.	.	8a/	.	8cc\J	.	.	.	.	.	.
8G\L	.	.	8g/L	.	8b/L	.	.	.	.	.	.
8D\	.	.	8g/	.	8b/	.	.	.	.	.	.
8D\J	.	.	8g/J	.	8b/J	.	.	.	.	.	.
=20	=20	=20	=20	=20	=20	=20	=20	=20	=20	=20	=20
!	!	!	!	!	!	!	!	!LO:N:vis=2	!	!	!
8DD/L	.	.	8f#/L	.	8a/L	.	1.ryy	2.r	.	1.ryy	1.ryy
8DD/	.	.	8f#/	.	8a/	.	.	.	.	.	.
8DD/J	.	.	8f#/J	.	8a/J	.	.	.	.	.	.
8G\L	.	.	8g/L	.	4g/	.	.	.	.	.	.
8D\	.	.	8d/	.	.	.	.	.	.	.	.
8BB\J	.	.	8B/J	.	4r	.	.	.	.	.	.
8GG/L	.	.	8G/L	.	.	.	.	4r	.	.	.
8BB/	.	.	8B/	.	4r	.	.	.	.	.	.
8D/J	.	.	8d/J	.	.	.	.	8r	.	.	.
4GG/	.	.	4G/	.	4r	.	.	4r	.	.	.
8r	.	.	8r	.	8dd\	.	.	8dd\	be-	.	.
=21	=21	=21	=21	=21	=21	=21	=21	=21	=21	=21	=21
!	!LO:DY:a	!	!	!LO:DY:a	!	!LO:DY:a	!	!	!	!	!
!	!LO:DY:a	!	!	!LO:DY:a	!	!LO:DY:a	!	!	!	!	!
!	!LO:DY:t=pia&colon;	!	!	!	!	!	!	!	!	!	!
4GG/	p	.	4b/	p ???	4gg\	p ???	1.ryy	4gg\	.	1.ryy	1.ryy
8r	.	.	8b/	.	8dd\	.	.	8dd\	-ne-	.	.
4GG/	.	.	4g/	.	4b/	.	.	4b\	.	.	.
8r	.	.	8g/	.	8g/	.	.	8g\	-di-	.	.
4G\	.	.	8.g/L	.	8.g/L	.	.	4g/	.	.	.
.	.	.	16d/K	.	16d/K	.	.	.	.	.	.
8r	.	.	8g/J	.	8b/J	.	.	8b\	.	.	.
!	!	!	!	!	!LO:N:vis=4	!	!	!	!	!	!
8.d\L	.	.	4.g/	.	4.b/	.	.	4.b\	.	.	.
16A\K	.	.	.	.	.	.	.	.	.	.	.
8F#\J	.	.	.	.	.	.	.	.	.	.	.
=22	=22	=22	=22	=22	=22	=22	=22	=22	=22	=22	=22
4D/	.	.	4f#/	.	4a/	.	1.ryy	4a\	-ctus	1.ryy	1.ryy
8r	.	.	8dd\	.	8ff#\	.	.	8ff#\	qui	.	.
4D/	.	.	4ff#\	.	4aa\	.	.	4aa\	ve-	.	.
8r	.	.	8dd\	.	8ff#\	.	.	8ff#\	.	.	.
4D/	.	.	4b/	.	4dd\	.	.	4dd\	.	.	.
8r	.	.	8a/	.	8cc\	.	.	8cc\	.	.	.
4D/	.	.	8.f#/L	.	8.a/L	.	.	4a\	.	.	.
.	.	.	16d/K	.	16d/K	.	.	.	.	.	.
!LO:N:vis=4	!	!	!	!	!	!	!	!	!	!	!
8F#	.	.	8a/J	.	8cc/J	.	.	8cc\	.	.	.
!LO:LB:g=original	!	!	!	!	!LO:LB:g=original	!	!	!	!	!	!
=23	=23	=23	=23	=23	=23	=23	=23	=23	=23	=23	=23
8.G\L	.	.	4.a/	.	4.cc\	.	1.ryy	4.cc\	-nit	1.ryy	1.ryy
16D\K	.	.	.	.	.	.	.	.	.	.	.
8BB\J	.	.	.	.	.	.	.	.	.	.	.
4GG/	.	.	4g/	.	4b\	.	.	4b\	in	.	.
8r	.	.	8b/	.	8dd\	.	.	8dd\	.	.	.
!	!	!	!LO:LB:g=original	!	!	!	!	!	!	!	!
4GG/	.	.	4b\	.	4dd\	.	.	8.dd\L	No-	.	.
.	.	.	.	.	.	.	.	16b\L	.	.	.
8r	.	.	8dd\	.	8ff#\	.	.	16gg\	.	.	.
.	.	.	.	.	.	.	.	16ff#\JJ	.	.	.
!	!	!	!	!	!	!	!	!LO:LB:g=original	!	!	!
4BB/	.	65	4b\	.	4dd\	.	.	8.dd\	.	.	.
.	.	.	.	.	.	.	.	16b\	-mi-	.	.
8r	.	.	8dd\	.	8ff#\	.	.	8ffn\	-ne	.	.
=24	=24	=24	=24	=24	=24	=24	=24	=24	=24	=24	=24
8.C/L	.	.	4dd\	.	4ff#\	.	1.ryy	4ff#\	do-	1.ryy	1.ryy
16GG/K	.	.	.	.	.	.	.	.	.	.	.
8EE/J	.	.	8cc\	.	8ee\	.	.	8ee\	-mi-	.	.
4CC/	.	.	4cc\	.	4ee\	.	.	4ee\	-ni	.	.
8r	.	.	8cc\	.	8ee\	.	.	8ee\	in	.	.
4AA/	.	.	4cc#\	.	4ee\	.	.	8.ee\L	no-	.	.
.	.	.	.	.	.	.	.	16cc#X\K	.	.	.
8r	.	.	8ee\	.	8gg\	.	.	8gg\J	.	.	.
4C#X/	.	.	4cc#\	.	4ee\	.	.	8.ee\	-mi-	.	.
.	.	.	.	.	.	.	.	16cc#\	.	.	.
8r	.	.	8ee\	.	8gg\	.	.	8gg\	-ne	.	.
=25	=25	=25	=25	=25	=25	=25	=25	=25	=25	=25	=25
8.D/L	.	.	4ee\	.	4gg\	.	1.ryy	4gg\	do-	1.ryy	1.ryy
16AA/K	.	.	.	.	.	.	.	.	.	.	.
8FF#/J	.	.	8dd\	.	8ff#X\	.	.	8ff#X\	-mi-	.	.
4DD/	.	.	4dd\	.	4ff#\	.	.	4ff#\	-ni	.	.
8r	.	.	8ff#\	.	8aa\	.	.	8aa\	in	.	.
4D/	.	2	4cc\	.	8.aa\L	.	.	8.aa\	no-	.	.
.	.	.	.	.	16ff#\K	.	.	16ff#\	-mi-	.	.
8r	.	.	8b\	.	8dd\J	.	.	8dd\	-ne	.	.
4D/	.	.	4a/	.	4cc\	.	.	4cc\	do-	.	.
8r	.	.	8g/	.	8b\	.	.	8b\	.	.	.
=26	=26	=26	=26	=26	=26	=26	=26	=26	=26	=26	=26
4GG/	.	.	4g/	.	8.b\L	.	1.ryy	8.b\L	.	1.ryy	1.ryy
.	.	.	.	.	16dd\K	.	.	16dd\K	.	.	.
8r	.	.	8b/	.	8gg\J	.	.	8gg\J	.	.	.
4GG/	.	.	4g/	.	8.b\L	.	.	8.b\L	.	.	.
.	.	.	.	.	16dd\K	.	.	16dd\K	.	.	.
8r	.	.	8cc/	.	8gg\J	.	.	8gg\J	.	.	.
!	!	!	!	!	!	!	!	!LO:LB:g=original	!	!	!
4F#\	.	.	4a/	.	4cc\	.	.	4cc\	.	.	.
8G\	.	.	8g/	.	8b\	.	.	8b\	.	.	.
8.d\L	.	.	4.g/	.	4.b/	.	.	4.b\	.	.	.
16A\K	.	.	.	.	.	.	.	.	.	.	.
8F#\J	.	.	.	.	.	.	.	.	.	.	.
=27	=27	=27	=27	=27	=27	=27	=27	=27	=27	=27	=27
4D/	.	2	4f#/	.	4a/	.	1.ryy	8a\	-mi-	1.ryy	1.ryy
.	.	.	.	.	.	.	.	8a	.	.	.
8r	.	.	8ff#\	.	8aa\	.	.	8aa\	-ni	.	.
4D/	.	.	4cc\	.	8.aa\L	.	.	8.aa\	in	.	.
.	.	.	.	.	16ff#\K	.	.	16ff#\	No-	.	.
8r	.	.	8b\	.	8dd\J	.	.	8dd\	-mi-	.	.
8F#\L	.	.	4a/	.	4cc\	.	.	4cc\	-ne	.	.
8D\	.	.	.	.	.	.	.	.	.	.	.
8G\J	.	.	8g/	.	8b\	.	.	8b\	do-	.	.
4GG/	.	.	4g/	.	8.b\L	.	.	8.b\L	.	.	.
.	.	.	.	.	16dd\K	.	.	16dd\K	.	.	.
8r	.	.	8b/	.	8gg\J	.	.	8gg\J	.	.	.
!	!	!	!	!	!LO:LB:g=original	!	!	!	!	!	!
=28	=28	=28	=28	=28	=28	=28	=28	=28	=28	=28	=28
8.d\L	.	.	4.g/	.	4.b/	.	1.ryy	4b\	.	1.ryy	1.ryy
16A\K	.	.	.	.	.	.	.	.	.	.	.
8F#\J	.	.	.	.	.	.	.	8b\	-mi-	.	.
4D/	.	.	4f#/	.	4a/	.	.	4b\	-ni	.	.
8r	.	.	8cc\	.	8ff#\	.	.	8ff#\	in	.	.
4GG/	.	.	4b/	.	8.gg\L	.	.	8.gg\L	No-	.	.
.	.	.	.	.	16dd\K	.	.	16dd\K	.	.	.
8r	.	.	8r	.	8b\J	.	.	8b\J	.	.	.
!	!	!	!LO:LB:g=original	!	!	!	!	!	!	!	!
4C/	.	6	4e/	.	8.ee\L	.	.	8.ee\L	-mi-	.	.
.	.	.	.	.	16cc\K	.	.	16cc\K	.	.	.
8r	.	.	8r	.	8a\J	.	.	8a\J	.	.	.
=29	=29	=29	=29	=29	=29	=29	=29	=29	=29	=29	=29
4BB/	.	6	4b/	.	8.dd\L	.	1.ryy	8.dd\L	ne	1.ryy	1.ryy
.	.	.	.	.	16b\K	.	.	16b\K	.	.	.
4r	.	.	8g/	.	8g\J	.	.	8g\J	.	.	.
.	.	.	8g/L	.	8b/L	.	.	4.d/	do-	.	.
!LO:TX:t=P:problem:w źródle brak pozostałej części taktu	!	!	!	!	!	!	!	!	!	!	!
1ryy	.	.	8g/	.	8b/	.	.	.	.	.	.
.	.	.	8g/J	.	8b/J	.	.	.	.	.	.
.	.	.	8f#/L	.	8a/L	.	.	4a\	.	.	.
.	.	.	8f#/	.	8a/	.	.	.	.	.	.
.	.	.	8f#/J	.	8a/J	.	.	8a\	-mi-	.	.
!	!	!	!	!	!	!	!	!LO:LB:g=original	!	!	!
.	.	.	4g/	.	4g/	.	.	4g/	-ni	.	.
.	.	.	8d/	.	8d/	.	.	8r	.	.	.
!LO:LB:g=original	!	!	!	!	!	!	!	!	!	!	!
=30	=30	=30	=30	=30	=30	=30	=30	=30	=30	=30	=30
!	!	!	!	!LO:DY:a	!	!LO:DY:a	!	!	!	!	!
!	!	!	!	!LO:DY:a	!	!LO:DY:a	!	!	!	!	!
4D/	.	2	4f#/	f ???	8.d/L	f ???	1.ryy	0.r;	.	1.ryy	1.ryy
.	.	.	.	.	16f#/K	.	.	.	.	.	.
8r	.	.	8r	.	8a/J	.	.	.	.	.	.
4D/	.	.	4a/	.	8.cc/L	.	.	.	.	.	.
.	.	.	.	.	16a/K	.	.	.	.	.	.
8r	.	.	8r	.	8f#/J	.	.	.	.	.	.
4G\	.	.	4g/	.	8.b/L	.	.	.	.	.	.
.	.	.	.	.	16g/K	.	.	.	.	.	.
8r	.	.	8b/	.	8dd/J	.	.	.	.	.	.
4GG/	.	.	4b/	.	4gg\	.	.	.	.	.	.
8r	.	.	8b/	.	8dd\	.	.	.	.	.	.
=31	=31	=31	=31	=31	=31	=31	=31	=31	=31	=31	=31
!	!	!	!	!	!	!LO:DY:a	!	!	!	!	!
!	!	!	!	!	!	!LO:DY:a	!	!	!	!	!
4D/	.	2	4f#/	.	8.d/L	.	1.ryy	.	.	1.ryy	1.ryy
.	.	.	.	.	16f#/K	.	.	.	.	.	.
8r	.	.	8r	.	8a/J	.	.	.	.	.	.
4D/	.	.	4a/	.	8.cc/L	.	.	.	.	.	.
.	.	.	.	.	16a/K	.	.	.	.	.	.
8r	.	.	8r	.	8f#/J	.	.	.	.	.	.
4G\	.	.	4g/	.	8.b/L	.	.	.	.	.	.
.	.	.	.	.	16g/K	.	.	.	.	.	.
8r	.	.	8b/	.	8dd/J	.	.	.	.	.	.
4GG/	.	.	4b/	.	4gg\	.	.	.	.	.	.
8r	.	.	8b/	.	8dd\	.	.	.	.	.	.
=32	=32	=32	=32	=32	=32	=32	=32	=32	=32	=32	=32
4GG/	.	.	4b/	.	8.gg\L	.	1.ryy	1.r	.	1.ryy	1.ryy
.	.	.	.	.	16dd\K	.	.	.	.	.	.
8r	.	.	8r	.	8b\J	.	.	.	.	.	.
4C/	.	6	4e/	.	8.ee\L	.	.	.	.	.	.
.	.	.	.	.	16cc\K	.	.	.	.	.	.
8r	.	.	8r	.	8a\J	.	.	.	.	.	.
!	!	!	!	!	!LO:LB:g=original	!	!	!	!	!	!
4D/	.	.	4f#/	.	8d/L	.	.	.	.	.	.
.	.	.	.	.	8a/	.	.	.	.	.	.
8r	.	.	8r	.	8f#/J	.	.	.	.	.	.
8G\L	.	.	8g/L	.	4g/	.	.	.	.	.	.
8D\	.	.	8d/	.	.	.	.	.	.	.	.
8BB\J	.	.	8B/J	.	8r	.	.	.	.	.	.
=33	=33	=33	=33	=33	=33	=33	=33	=33	=33	=33	=33
8GG/L	.	.	8G/L	.	4r	.	1.ryy	4r	.	1.ryy	1.ryy
8BB/	.	.	8B/	.	.	.	.	.	.	.	.
8D/J	.	.	8d/J	.	8r	.	.	8r	.	.	.
4GG/	.	.	4G/	.	4r	.	.	4r	.	.	.
!	!LO:DY:a	!	!	!LO:DY:a	!	!LO:DY:a	!	!	!	!	!
!	!LO:DY:a	!	!	!LO:DY:a	!	!LO:DY:a	!	!	!	!	!
8r	p ???	.	8r	.	8dd\	p ???	.	8dd\	be-	.	.
4GG/	.	.	4b/	p	4gg\	.	.	4gg\	.	.	.
8r	.	.	8b/	.	8dd\	.	.	8dd\	.	.	.
4GG/	.	.	4g/	.	4b/	.	.	4b\	-ne-	.	.
8r	.	.	8g/	.	8g/	.	.	8g\	.	.	.
=34	=34	=34	=34	=34	=34	=34	=34	=34	=34	=34	=34
4G\	.	.	8.g/L	.	8.g/L	.	1.ryy	4g\	-di-	1.ryy	1.ryy
.	.	.	16d/K	.	16d/K	.	.	.	.	.	.
8r	.	.	8g/J	.	8b/J	.	.	8b\	.	.	.
!	!	!	!LO:LB:g=original	!	!	!	!	!	!	!	!
8.d\L	.	.	4.g/	.	4.b/	.	.	4.b\	.	.	.
!LO:N:vis=8	!	!	!	!	!	!	!	!	!	!	!
16A\K	.	.	.	.	.	.	.	.	.	.	.
8F#\J	.	.	.	.	.	.	.	.	.	.	.
4D\	.	.	4f#/	.	4a/	.	.	4a\	-ctus	.	.
8r	.	.	8a/	.	8ff#\	.	.	8ff#\	qui	.	.
4D\	.	.	4dd\	.	4aa\	.	.	4aa\	ve-	.	.
8r	.	.	8a/	.	8ff#\	.	.	8ff#\	.	.	.
=35	=35	=35	=35	=35	=35	=35	=35	=35	=35	=35	=35
4D\	.	.	4b/	.	4dd\	.	1.ryy	4dd\	.	1.ryy	1.ryy
8r	.	.	8a/	.	8cc\	.	.	8cc\	.	.	.
4D\	.	.	8.f#/L	.	8.a/L	.	.	4a\	.	.	.
.	.	.	16d/K	.	16d/K	.	.	.	.	.	.
8G\	.	.	8a/J	.	8cc/J	.	.	8cc\	.	.	.
8.G\L	.	.	4.a/	.	4.cc\	.	.	4.cc\	.	.	.
16E\K	.	.	.	.	.	.	.	.	.	.	.
8BB\J	.	.	.	.	.	.	.	.	.	.	.
!LO:LB:g=original	!	!	!	!	!	!	!	!	!	!	!
4.GG/	.	.	4g/	.	4b\	.	.	4b\	-nit	.	.
.	.	.	8b/	.	8dd\	.	.	8cc\	in-	.	.
!	!	!	!	!	!	!	!	!LO:LB:g=original	!	!	!
=36	=36	=36	=36	=36	=36	=36	=36	=36	=36	=36	=36
4E\	.	#	8.b/L	.	8.dd\L	.	1.ryy	8.dd\L	-no-	1.ryy	1.ryy
.	.	.	16g#X/K	.	16b\K	.	.	16b\K	.	.	.
8r	.	.	8b/J	.	8dd\J	.	.	8dd\J	.	.	.
4E\	.	.	8.b/L	.	8.dd\L	.	.	8.dd\L	.	.	.
.	.	.	16g#/K	.	16b\K	.	.	16b\K	.	.	.
8r	.	.	8b/J	.	8dd\J	.	.	8dd\J	.	.	.
!	!	!	!	!	!LO:PB:g=original	!	!	!	!	!	!
4G#X\	.	.	8.dd\L	.	8.ffn\L	.	.	8.ff#\L	.	.	.
.	.	.	16cc\K	.	16ee\K	.	.	16gg\K	.	.	.
8r	.	.	8b\J	.	8dd\J	.	.	8dd\J	.	.	.
4G#\	.	.	8.dd\L	.	8.ffn\L	.	.	8.ff#\L	.	.	.
.	.	.	16cc\K	.	16ee\K	.	.	16ee\K	.	.	.
8r	.	.	8b\J	.	8dd\J	.	.	8dd\J	.	.	.
=37	=37	=37	=37	=37	=37	=37	=37	=37	=37	=37	=37
8A\L	.	.	4b/	.	4dd\	.	1.ryy	4dd\	.	1.ryy	1.ryy
8E\	.	.	.	.	.	.	.	.	.	.	.
8C\J	.	.	8a/	.	8cc\	.	.	8cc\	-mi-	.	.
4AA/	.	.	4a/	.	4cc\	.	.	4dd\	-ni	.	.
8r	.	.	8a/	.	8cc\	.	.	8cc\	in	.	.
4D/	.	.	8.a/L	.	8.cc\L	.	.	8.cc\L	No-	.	.
.	.	.	16f#/K	.	16a\K	.	.	16a\K	.	.	.
8r	.	.	8a/J	.	8cc\J	.	.	8cc\J	.	.	.
4D/	.	.	8.a/L	.	8.cc\L	.	.	8.cc\L	.	.	.
.	.	.	16f#/K	.	16a\K	.	.	16a\K	.	.	.
8r	.	.	8a/J	.	8cc\J	.	.	8cc\J	.	.	.
=38	=38	=38	=38	=38	=38	=38	=38	=38	=38	=38	=38
4F#\	.	.	8.cc\L	.	8.ee\L	.	1.ryy	8.ee\L	.	1.ryy	1.ryy
.	.	.	16b\K	.	16dd\K	.	.	16dd\K	.	.	.
8r	.	.	8a\J	.	8cc\J	.	.	8cc\J	.	.	.
4F#\	.	.	8.cc\L	.	8.ee\L	.	.	8.ee\L	.	.	.
.	.	.	16b\K	.	16dd\K	.	.	16dd\K	.	.	.
8r	.	.	8a\J	.	8cc\J	.	.	8cc\J	.	.	.
!	!	!	!LO:LB:g=original	!	!	!	!	!	!	!	!
8Gn\L	.	.	4a/	.	4cc\	.	.	4cc\	.	.	.
8D\	.	.	.	.	.	.	.	.	.	.	.
8BB\J	.	.	8g/	.	8b\	.	.	8b\	-mi-	.	.
4GG/	.	.	4g/	.	4cc\	.	.	4b\	-ne	.	.
8r	.	.	8b/	.	8dd\	.	.	8dd\	in	.	.
!	!	!	!	!	!	!	!	!LO:PB:g=original	!	!	!
=39	=39	=39	=39	=39	=39	=39	=39	=39	=39	=39	=39
4GG/	.	4	4cc\	.	4ee\	.	1.ryy	8.ee\L	No-	1.ryy	1.ryy
.	.	.	.	.	.	.	.	16gg\K	.	.	.
8r	.	.	8r	.	8r	.	.	8ee\J	.	.	.
4GG/	.	.	4cc\	.	4ee\	.	.	8.ee\L	.	.	.
.	.	.	.	.	.	.	.	16gg\K	.	.	.
8r	.	.	8r	.	8r	.	.	8ee\J	.	.	.
4GG/	.	3	4b\	.	4dd\	.	.	8.dd\L	.	.	.
.	.	.	.	.	.	.	.	16gg\K	.	.	.
8r	.	.	8r	.	8r	.	.	8dd\J	.	.	.
4GG/	.	.	4b\	.	4dd\	.	.	8.dd\L	.	.	.
.	.	.	.	.	.	.	.	16gg\K	.	.	.
8r	.	.	8r	.	8r	.	.	8dd\J	.	.	.
=40	=40	=40	=40	=40	=40	=40	=40	=40	=40	=40	=40
4D/	.	2	4a/	.	8.cc\L	.	1.ryy	4.cc\	.	1.ryy	1.ryy
.	.	.	.	.	16a\K	.	.	.	.	.	.
8r	.	.	8a/	.	8ff#\J	.	.	.	.	.	.
4D/	.	.	4cc\	.	8.aa\L	.	.	8.aa\L	.	.	.
.	.	.	.	.	16ff#\K	.	.	16ff#\K	.	.	.
8r	.	.	8b\	.	8dd\J	.	.	8dd\J	.	.	.
!	!	!	!	!	!LO:LB:g=original	!	!	!	!	!	!
4D/	.	.	4a/	.	4cc\	.	.	4cc\	-mi-	.	.
8r	.	.	8g/	.	8b\	.	.	8b\	-ne	.	.
4D/	.	.	4cc\	.	8.aa\L	.	.	8.aa\L	.	.	.
.	.	.	.	.	16ff#\K	.	.	16ff#\K	.	.	.
8r	.	.	8a/	.	8b\J	.	.	8cc\J	.	.	.
=41	=41	=41	=41	=41	=41	=41	=41	=41	=41	=41	=41
4E\	.	#	4g/	.	4b/	.	1.ryy	4b\	.	1.ryy	1.ryy
8r	.	.	8f#/	.	8a/	.	.	8a\	-mi-	.	.
4E\	.	.	4f#/	.	4a/	.	.	4a\	-ni	.	.
8r	.	.	4d/	.	8d/	.	.	8d/	in	.	.
!LO:PB:g=original	!	!	!	!	!	!	!	!	!	!	!
4G\	.	.	.	.	8.d/L	.	.	4.d/	no-	.	.
.	.	.	8r	.	.	.	.	.	.	.	.
.	.	.	.	.	16f#/K	.	.	.	.	.	.
8r	.	.	8f#/	.	8a/J	.	.	.	.	.	.
4G\	.	.	4a/	.	8.cc/L	.	.	4.cc\	.	.	.
.	.	.	.	.	16a/K	.	.	.	.	.	.
8r	.	.	8r	.	8f#/J	.	.	.	.	.	.
=42	=42	=42	=42	=42	=42	=42	=42	=42	=42	=42	=42
8A\L	.	.	4g/	.	8.g/L	.	1.ryy	4b\	-mi-	1.ryy	1.ryy
8E\	.	.	.	.	.	.	.	.	.	.	.
.	.	.	.	.	16b/K	.	.	.	.	.	.
8C\J	.	.	8b/	.	8dd/J	.	.	8dd\	.	.	.
4AA/	.	.	4b/	.	4gg\	.	.	4gg\	-ne	.	.
8r	.	.	8b/	.	8dd\	.	.	8dd\	in	.	.
!	!	!	!	!	!	!	!	!LO:LB:g=original	!	!	!
4D/	.	.	4f#/	.	8.d/L	.	.	4.d/	no-	.	.
.	.	.	.	.	16f#/K	.	.	.	.	.	.
8r	.	.	8r	.	8a/J	.	.	.	.	.	.
4D/	.	.	4a/	.	8.cc/L	.	.	4.cc\	.	.	.
.	.	.	.	.	16a/K	.	.	.	.	.	.
8r	.	.	8r	.	8f#/J	.	.	.	.	.	.
=43	=43	=43	=43	=43	=43	=43	=43	=43	=43	=43	=43
4F#\	.	.	4g/	.	8.g/L	.	1.ryy	4b\	.	1.ryy	1.ryy
.	.	.	.	.	16b/K	.	.	.	.	.	.
8r	.	.	8b/	.	8dd/J	.	.	8dd\	-mi-	.	.
4F#\	.	.	4b/	.	4gg\	.	.	4gg\	-ne	.	.
8r	.	.	8b/	.	8dd\	.	.	8dd\	.	.	.
8Gn\L	.	.	4b/	.	8.gg\L	.	.	8.gg\L	do-	.	.
8D\	.	.	.	.	.	.	.	.	.	.	.
.	.	.	.	.	16dd\K	.	.	16dd\K	.	.	.
8BB\J	.	.	8r	.	8b\J	.	.	8b\J	.	.	.
4GG/	.	.	4e/	.	8.ee\L	.	.	8.ee\L	.	.	.
.	.	.	.	.	16cc\K	.	.	16cc\K	.	.	.
8r	.	.	8r	.	8a\J	.	.	8a\J	.	.	.
!	!	!	!LO:LB:g=original	!	!	!	!	!	!	!	!
=44	=44	=44	=44	=44	=44	=44	=44	=44	=44	=44	=44
4GG/	.	4	8d/L	.	8g/L	.	1.ryy	4.g/	.	1.ryy	1.ryy
.	.	.	8d/	.	8g/	.	.	.	.	.	.
8r	.	.	8d/J	.	8g/J	.	.	.	.	.	.
!	!	!	!	!	!LO:LB:g=original	!	!	!	!	!	!
4GG/	.	.	8f#/L	.	8a/L	.	.	4.a/	-mi-	.	.
.	.	.	8f#/	.	8a/	.	.	.	.	.	.
8r	.	.	8f#/J	.	8a/J	.	.	.	.	.	.
4GG/	.	3	8g/L	.	4g'/	.	.	4g/	-ni	.	.
.	.	.	8d/	.	.	.	.	.	.	.	.
8r	.	.	8B/J	.	8r	.	.	8r	.	.	.
4GG/	.	.	4G/	.	4r	.	.	4r	.	.	.
8r	.	.	8b/	.	8dd\	f	.	8r	.	.	.
=45	=45	=45	=45	=45	=45	=45	=45	=45	=45	=45	=45
!	!	!	!	!	!	!LO:DY:a	!	!	!	!	!
!	!	!	!	!	!	!LO:DY:a	!	!LO:TX:a:t=4	!	!	!
4D/	.	2	4cc\	.	8.ee\L	.	1.ryy	00.r	.	1.ryy	1.ryy
.	.	.	.	.	16cc\K	.	.	.	.	.	.
8r	.	.	8ee\	.	8gg\J	.	.	.	.	.	.
4D/	.	.	4ee\	.	8.ccc\L	.	.	.	.	.	.
.	.	.	.	.	16gg\K	.	.	.	.	.	.
8r	.	.	8dd\	.	8ee\J	.	.	.	.	.	.
4D/	.	.	4b\	.	8.dd\L	.	.	.	.	.	.
.	.	.	.	.	16b\K	.	.	.	.	.	.
8r	.	.	8b\	.	8gg\J	.	.	.	.	.	.
4D/	.	.	4dd\	.	8.bb\L	.	.	.	.	.	.
.	.	.	.	.	16gg\K	.	.	.	.	.	.
8r	.	.	8b\	.	8dd\J	.	.	.	.	.	.
=46	=46	=46	=46	=46	=46	=46	=46	=46	=46	=46	=46
8.d\L	.	.	4a/	.	8.cc\L	.	1.ryy	.	.	1.ryy	1.ryy
16A\K	.	.	.	.	16a\K	.	.	.	.	.	.
8F#\J	.	.	8a/	.	8ff#\J	.	.	.	.	.	.
4D/	.	.	4cc/	.	8.aa\L	.	.	.	.	.	.
.	.	.	.	.	16ff#\K	.	.	.	.	.	.
8r	.	.	8b/	.	8dd\J	.	.	.	.	.	.
4D/	.	.	4a/	.	4cc\	.	.	.	.	.	.
8r	.	.	8g/	.	8b\	.	.	.	.	.	.
!	!	!	!	!	!LO:TX:a:t=P:problem:mixed beam	!	!	!	!	!	!
4F#\	.	.	8g/L	.	8b/L	.	.	.	.	.	.
.	.	.	8f#/	.	8a/	.	.	.	.	.	.
8r	.	.	8a/J	.	8ff#\J	.	.	.	.	.	.
=47	=47	=47	=47	=47	=47	=47	=47	=47	=47	=47	=47
4GG/	.	.	4b/	.	8.gg\L	.	1.ryy	.	.	1.ryy	1.ryy
.	.	.	.	.	16dd\K	.	.	.	.	.	.
8r	.	.	8r	.	8b\J	.	.	.	.	.	.
4G\	.	.	4e/	.	8.ee\L	.	.	.	.	.	.
.	.	.	.	.	16cc\K	.	.	.	.	.	.
8r	.	.	8r	.	8a\J	.	.	.	.	.	.
4D/	.	.	4b/	.	8.dd\L	.	.	.	.	.	.
.	.	.	.	.	16b\K	.	.	.	.	.	.
8r	.	.	8r	.	8g\J	.	.	.	.	.	.
4F#\	.	.	8d/	.	8d/L	.	.	.	.	.	.
.	.	.	4f#/	.	8a/	.	.	.	.	.	.
8r	.	.	.	.	8f#/J	.	.	.	.	.	.
!LO:LB:g=original	!	!	!	!	!LO:LB:g=original	!	!	!	!	!	!
=48	=48	=48	=48	=48	=48	=48	=48	=48	=48	=48	=48
4G\	.	.	8g/L	.	4.g/	.	1.ryy	.	.	1.ryy	1.ryy
.	.	.	8d/	.	.	.	.	.	.	.	.
8r	.	.	8B/J	.	.	.	.	.	.	.	.
4GG/	.	.	4G/	.	8r	.	.	.	.	.	.
.	.	.	.	.	1r	.	.	.	.	.	.
8r	.	.	8r	.	.	.	.	.	.	.	.
4GG/	.	.	4ryy	.	.	.	.	.	.	.	.
8r	.	.	2r	.	.	.	.	.	.	.	.
4C/	.	6	.	.	.	.	.	.	.	.	.
8r	.	.	.	.	.	.	.	.	.	.	.
=49	=49	=49	=49	=49	=49	=49	=49	=49	=49	=49	=49
8D/L	.	.	1.ryy	.	1.ryy	.	1.ryy	1.ryy	.	1.ryy	1.ryy
8D/	.	.	.	.	.	.	.	.	.	.	.
8D/J	.	.	.	.	.	.	.	.	.	.	.
8DD/L	.	.	.	.	.	.	.	.	.	.	.
8DD/	.	.	.	.	.	.	.	.	.	.	.
8DD/J	.	.	.	.	.	.	.	.	.	.	.
8G\L	.	.	.	.	.	.	.	.	.	.	.
8D\	.	.	.	.	.	.	.	.	.	.	.
8BB\J	.	.	.	.	.	.	.	.	.	.	.
8GG/L	.	.	.	.	.	.	.	.	.	.	.
8BB/	.	.	.	.	.	.	.	.	.	.	.
8GG/J	.	.	.	.	.	.	.	.	.	.	.
=50	=50	=50	=50	=50	=50	=50	=50	=50	=50	=50	=50
!	!LO:DY:a	!	!	!	!	!	!	!	!	!	!
!	!LO:DY:a	!	!	!	!	!	!	!	!	!	!
4GG/	f ???	.	1.ryy	.	1.ryy	.	1.ryy	1.ryy	.	1.ryy	1.ryy
8r	.	.	.	.	.	.	.	.	.	.	.
4GG/	.	.	.	.	.	.	.	.	.	.	.
8r	.	.	.	.	.	.	.	.	.	.	.
4G\	.	3	.	.	.	.	.	.	.	.	.
8r	.	.	.	.	.	.	.	.	.	.	.
4G\	.	.	.	.	.	.	.	.	.	.	.
8r	.	.	.	.	.	.	.	.	.	.	.
=51	=51	=51	=51	=51	=51	=51	=51	=51	=51	=51	=51
4D/	.	2	1.ryy	.	1.ryy	.	1.ryy	1.ryy	.	1.ryy	1.ryy
8r	.	.	.	.	.	.	.	.	.	.	.
4D/	.	.	.	.	.	.	.	.	.	.	.
8r	.	.	.	.	.	.	.	.	.	.	.
4D/	.	.	.	.	.	.	.	.	.	.	.
8r	.	.	.	.	.	.	.	.	.	.	.
4D/	.	.	.	.	.	.	.	.	.	.	.
8r	.	.	.	.	.	.	.	.	.	.	.
=52	=52	=52	=52	=52	=52	=52	=52	=52	=52	=52	=52
4GG/	.	.	1.ryy	.	1.ryy	.	1.ryy	1.ryy	.	1.ryy	1.ryy
8r	.	.	.	.	.	.	.	.	.	.	.
4C/	.	6	.	.	.	.	.	.	.	.	.
8r	.	.	.	.	.	.	.	.	.	.	.
4BB/	.	.	.	.	.	.	.	.	.	.	.
8r	.	.	.	.	.	.	.	.	.	.	.
4D/	.	.	.	.	.	.	.	.	.	.	.
8r	.	.	.	.	.	.	.	.	.	.	.
=53	=53	=53	=53	=53	=53	=53	=53	=53	=53	=53	=53
8G\L	.	.	1.ryy	.	1.ryy	.	1.ryy	1.ryy	.	1.ryy	1.ryy
8D\	.	.	.	.	.	.	.	.	.	.	.
8BB\J	.	.	.	.	.	.	.	.	.	.	.
4GG/	.	.	.	.	.	.	.	.	.	.	.
8r	.	.	.	.	.	.	.	.	.	.	.
4ryy	.	.	.	.	.	.	.	.	.	.	.
2r	.	.	.	.	.	.	.	.	.	.	.
=:||	=:|!	=:|!	=||	=:|!	=||	=:|!	=||	=:||	=:|!	=||	=||
*-	*-	*-	*-	*-	*-	*-	*-	*-	*-	*-	*-
!!!system-decoration: [s1,s2][s3,s4][s5,s6]s7
!!!RDF**dynam: p = pia
!!!RDF**dynam: f = For
!!!EED: Antoni Szymański
!!!EST: 2020-10-02
!!!ENC: Tomasz Grochalski
!!!END: 2020-04-16
